; G-Code generated by Simplify3D(R) Version 4.0.0
; Jul 29, 2018 at 11:00:30 AM
; Settings Summary
;   processName,FunnelCaps
;   applyToModels,canapied02
;   profileName,Bcn3D+ (modified)
;   profileVersion,2015-10-18 19:43:31
;   baseProfile,Default (modified)
;   printMaterial,PLA
;   printQuality,Medium
;   printExtruders,
;   extruderName,Primary Extruder
;   extruderToolheadNumber,0
;   extruderDiameter,0.4
;   extruderAutoWidth,0
;   extruderWidth,0.4
;   extrusionMultiplier,1
;   extruderUseRetract,1
;   extruderRetractionDistance,3
;   extruderExtraRestartDistance,-0.05
;   extruderRetractionZLift,0.05
;   extruderRetractionSpeed,2100
;   extruderUseCoasting,0
;   extruderCoastingDistance,0.2
;   extruderUseWipe,0
;   extruderWipeDistance,5
;   primaryExtruder,0
;   layerHeight,0.2
;   topSolidLayers,3
;   bottomSolidLayers,3
;   perimeterOutlines,3
;   printPerimetersInsideOut,1
;   startPointOption,2
;   startPointOriginX,0
;   startPointOriginY,0
;   sequentialIslands,0
;   spiralVaseMode,0
;   firstLayerHeightPercentage,80
;   firstLayerWidthPercentage,130
;   firstLayerUnderspeed,0.5
;   useRaft,0
;   raftExtruder,0
;   raftTopLayers,3
;   raftBaseLayers,2
;   raftOffset,3
;   raftSeparationDistance,0.14
;   raftTopInfill,100
;   aboveRaftSpeedMultiplier,0.3
;   useSkirt,1
;   skirtExtruder,0
;   skirtLayers,1
;   skirtOutlines,10
;   skirtOffset,0
;   usePrimePillar,0
;   primePillarExtruder,999
;   primePillarWidth,12
;   primePillarLocation,7
;   primePillarSpeedMultiplier,1
;   useOozeShield,0
;   oozeShieldExtruder,999
;   oozeShieldOffset,2
;   oozeShieldOutlines,1
;   oozeShieldSidewallShape,1
;   oozeShieldSidewallAngle,30
;   oozeShieldSpeedMultiplier,1
;   infillExtruder,0
;   internalInfillPattern,Fast Honeycomb
;   externalInfillPattern,Concentric
;   infillPercentage,30
;   outlineOverlapPercentage,20
;   infillExtrusionWidthPercentage,100
;   minInfillLength,5
;   infillLayerInterval,1
;   internalInfillAngles,0
;   overlapInternalInfillAngles,0
;   externalInfillAngles,45,-45
;   generateSupport,0
;   supportExtruder,0
;   supportInfillPercentage,30
;   supportExtraInflation,0
;   supportBaseLayers,0
;   denseSupportExtruder,0
;   denseSupportLayers,0
;   denseSupportInfillPercentage,70
;   supportLayerInterval,1
;   supportHorizontalPartOffset,0.3
;   supportUpperSeparationLayers,1
;   supportLowerSeparationLayers,1
;   supportType,0
;   supportGridSpacing,4
;   maxOverhangAngle,45
;   supportAngles,0
;   temperatureName,Primary Extruder,Heated Bed
;   temperatureNumber,0,1
;   temperatureSetpointCount,1,1
;   temperatureSetpointLayers,1,1
;   temperatureSetpointTemperatures,210,45
;   temperatureStabilizeAtStartup,1,1
;   temperatureHeatedBed,0,1
;   temperatureRelayBetweenLayers,0,0
;   temperatureRelayBetweenLoops,0,0
;   fanLayers,1,2
;   fanSpeeds,0,100
;   blipFanToFullPower,1
;   adjustSpeedForCooling,1
;   minSpeedLayerTime,15
;   minCoolingSpeedSlowdown,20
;   increaseFanForCooling,0
;   minFanLayerTime,45
;   maxCoolingFanSpeed,100
;   increaseFanForBridging,1
;   bridgingFanSpeed,100
;   use5D,1
;   relativeEdistances,0
;   allowEaxisZeroing,1
;   independentExtruderAxes,0
;   includeM10123,0
;   stickySupport,1
;   applyToolheadOffsets,0
;   gcodeXoffset,0
;   gcodeYoffset,0
;   gcodeZoffset,0
;   overrideMachineDefinition,1
;   machineTypeOverride,0
;   strokeXoverride,250
;   strokeYoverride,200
;   strokeZoverride,200
;   originOffsetXoverride,0
;   originOffsetYoverride,0
;   originOffsetZoverride,0
;   homeXdirOverride,-1
;   homeYdirOverride,-1
;   homeZdirOverride,-1
;   flipXoverride,1
;   flipYoverride,-1
;   flipZoverride,1
;   toolheadOffsets,0,0|0,0|0,0|0,0|0,0|0,0
;   overrideFirmwareConfiguration,1
;   firmwareTypeOverride,RepRap (Marlin/Repetier/Sprinter)
;   GPXconfigOverride,r2
;   baudRateOverride,115200
;   overridePrinterModels,0
;   printerModelsOverride
;   startingGcode,G28 ; home all axes
;   layerChangeGcode,
;   retractionGcode,
;   toolChangeGcode,
;   endingGcode,M104 S0 ; turn off Hot End,M120 S0; turn off Hot Bed,M140 S0,G1 X230 Y210 E0; ,M84     ; disable motors,M106 S0; disable fan
;   exportFileFormat,gcode
;   celebration,0
;   celebrationSong,Random Song
;   postProcessing,
;   defaultSpeed,6000
;   outlineUnderspeed,0.5
;   solidInfillUnderspeed,0.8
;   supportUnderspeed,0.8
;   rapidXYspeed,4800
;   rapidZspeed,1002
;   minBridgingArea,50
;   bridgingExtraInflation,0
;   bridgingExtrusionMultiplier,1
;   bridgingSpeedMultiplier,1
;   useFixedBridgingAngle,0
;   fixedBridgingAngle,0
;   applyBridgingToPerimeters,0
;   filamentDiameters,2.85|2.85|2.85|2.85|2.85|2.85
;   filamentPricesPerKg,45|45|45|45|45|45
;   filamentDensities,1.25|1.25|1.25|1.25|1.25|1.25
;   useMinPrintHeight,0
;   minPrintHeight,0.2
;   useMaxPrintHeight,0
;   maxPrintHeight,15
;   useDiaphragm,0
;   diaphragmLayerInterval,20
;   robustSlicing,1
;   mergeAllIntoSolid,0
;   onlyRetractWhenCrossingOutline,1
;   retractBetweenLayers,1
;   useRetractionMinTravel,0
;   retractionMinTravel,3
;   retractWhileWiping,0
;   onlyWipeOutlines,1
;   avoidCrossingOutline,0
;   maxMovementDetourFactor,3
;   toolChangeRetractionDistance,12
;   toolChangeExtraRestartDistance,-0.5
;   toolChangeRetractionSpeed,600
;   externalThinWallType,0
;   internalThinWallType,2
;   thinWallAllowedOverlapPercentage,10
;   singleExtrusionMinLength,1
;   singleExtrusionMinPrintingWidthPercentage,50
;   singleExtrusionMaxPrintingWidthPercentage,200
;   singleExtrusionEndpointExtension,0.2
;   horizontalSizeCompensation,0
G90
M82
M106 S255
G4 P500
M106 S0
M140 S45
M190 S45
M104 S210 T0
M109 S210 T0
G28 ; home all axes
G92 E0
G1 E-3.0000 F2100
G1 Z0.210 F1002
; process FunnelCaps
; layer 1, Z = 0.160
T0
; tool H0.200 W0.520
; skirt
G1 X106.200 Y88.776 F4800
G1 Z0.160 F1002
G1 E-0.0500 F630
G92 E0
G1 X108.426 Y86.550 E0.0513 F3000
G1 X141.574 Y86.550 E0.5917
G1 X143.800 Y88.776 E0.6430
G1 X143.800 Y111.224 E1.0090
G1 X141.574 Y113.450 E1.0603
G1 X108.426 Y113.450 E1.6007
G1 X106.200 Y111.224 E1.6520
G1 X106.200 Y88.776 E2.0180
G1 X106.600 Y88.942 F4800
G92 E0
G1 X108.592 Y86.950 E0.0459 F3000
G1 X141.408 Y86.950 E0.5809
G1 X143.400 Y88.942 E0.6268
G1 X143.400 Y111.058 E0.9874
G1 X141.408 Y113.050 E1.0333
G1 X108.592 Y113.050 E1.5683
G1 X106.600 Y111.058 E1.6142
G1 X106.600 Y88.942 E1.9748
G1 X107.000 Y89.107 F4800
G92 E0
G1 X108.757 Y87.350 E0.0405 F3000
G1 X141.243 Y87.350 E0.5701
G1 X143.000 Y89.107 E0.6106
G1 X143.000 Y110.893 E0.9658
G1 X141.243 Y112.650 E1.0063
G1 X108.757 Y112.650 E1.5359
G1 X107.000 Y110.893 E1.5764
G1 X107.000 Y89.107 E1.9316
G1 X107.400 Y89.273 F4800
G92 E0
G1 X108.923 Y87.750 E0.0351 F3000
G1 X141.077 Y87.750 E0.5593
G1 X142.600 Y89.273 E0.5944
G1 X142.600 Y110.727 E0.9442
G1 X141.077 Y112.250 E0.9793
G1 X108.923 Y112.250 E1.5035
G1 X107.400 Y110.727 E1.5386
G1 X107.400 Y89.273 E1.8883
G1 X107.800 Y89.439 F4800
G92 E0
G1 X109.089 Y88.150 E0.0297 F3000
G1 X140.911 Y88.150 E0.5485
G1 X142.200 Y89.439 E0.5782
G1 X142.200 Y110.561 E0.9226
G1 X140.911 Y111.850 E0.9523
G1 X109.089 Y111.850 E1.4711
G1 X107.800 Y110.561 E1.5008
G1 X107.800 Y89.439 E1.8451
G1 X108.200 Y89.604 F4800
G92 E0
G1 X109.254 Y88.550 E0.0243 F3000
G1 X140.746 Y88.550 E0.5377
G1 X141.800 Y89.604 E0.5620
G1 X141.800 Y110.396 E0.9010
G1 X140.746 Y111.450 E0.9253
G1 X109.254 Y111.450 E1.4386
G1 X108.200 Y110.396 E1.4630
G1 X108.200 Y89.604 E1.8019
G1 X108.600 Y89.770 F4800
G92 E0
G1 X109.420 Y88.950 E0.0189 F3000
G1 X140.580 Y88.950 E0.5269
G1 X141.400 Y89.770 E0.5458
G1 X141.400 Y110.230 E0.8793
G1 X140.580 Y111.050 E0.8983
G1 X109.420 Y111.050 E1.4062
G1 X108.600 Y110.230 E1.4251
G1 X108.600 Y89.770 E1.7587
G1 X109.000 Y89.936 F4800
G92 E0
G1 X109.586 Y89.350 E0.0135 F3000
G1 X140.414 Y89.350 E0.5161
G1 X141.000 Y89.936 E0.5296
G1 X141.000 Y110.064 E0.8577
G1 X140.414 Y110.650 E0.8712
G1 X109.586 Y110.650 E1.3738
G1 X109.000 Y110.064 E1.3873
G1 X109.000 Y89.936 E1.7155
G1 X109.400 Y90.101 F4800
G92 E0
G1 X109.751 Y89.750 E0.0081 F3000
G1 X140.249 Y89.750 E0.5053
G1 X140.600 Y90.101 E0.5134
G1 X140.600 Y109.899 E0.8361
G1 X140.249 Y110.250 E0.8442
G1 X109.751 Y110.250 E1.3414
G1 X109.400 Y109.899 E1.3495
G1 X109.400 Y90.101 E1.6723
G1 X109.800 Y90.267 F4800
G92 E0
G1 X109.917 Y90.150 E0.0027 F3000
G1 X140.083 Y90.150 E0.4945
G1 X140.200 Y90.267 E0.4972
G1 X140.200 Y109.733 E0.8145
G1 X140.083 Y109.850 E0.8172
G1 X109.917 Y109.850 E1.3090
G1 X109.800 Y109.733 E1.3117
G1 X109.800 Y90.267 E1.6290
G92 E0
G1 E-3.0000 F2100
G1 Z0.210 F1002
; inner perimeter
G1 X111.300 Y91.650 F4800
G1 Z0.160 F1002
G1 E-0.0500 F2100
G92 E0
G1 X138.700 Y91.650 E0.4467 F2250
G1 X138.700 Y108.350 E0.7189
G1 X111.300 Y108.350 E1.1656
G1 X111.300 Y91.650 E1.4379
G1 X110.780 Y91.130 F4800
G92 E0
G1 X139.220 Y91.130 E0.4636 F2250
G1 X139.220 Y108.870 E0.7528
G1 X110.780 Y108.870 E1.2165
G1 X110.780 Y91.130 E1.5057
; outer perimeter
G1 X110.260 Y90.610 F4800
G92 E0
G1 X139.740 Y90.610 E0.4806 F1500
G1 X139.740 Y109.390 E0.7868
G1 X110.260 Y109.390 E1.2674
G1 X110.260 Y90.610 E1.5735
; solid layer
G1 X111.716 Y92.066 F4800
G92 E0
G1 X138.284 Y92.066 E0.4331 F2400
G1 X138.284 Y107.934 E0.6918
G1 X111.716 Y107.934 E1.1249
G1 X111.716 Y92.066 E1.3836
G1 X112.236 Y92.586 F4800
G92 E0
G1 X137.764 Y92.586 E0.4162 F2400
G1 X137.764 Y107.414 E0.6579
G1 X112.236 Y107.414 E1.0741
G1 X112.236 Y92.586 E1.3158
G1 X112.756 Y93.106 F4800
G92 E0
G1 X137.244 Y93.106 E0.3992 F2400
G1 X137.244 Y106.894 E0.6240
G1 X112.756 Y106.894 E1.0232
G1 X112.756 Y93.106 E1.2480
G1 X113.276 Y93.626 F4800
G92 E0
G1 X136.724 Y93.626 E0.3823 F2400
G1 X136.724 Y106.374 E0.5901
G1 X113.276 Y106.374 E0.9723
G1 X113.276 Y93.626 E1.1802
G1 X113.796 Y94.146 F4800
G92 E0
G1 X136.204 Y94.146 E0.3653 F2400
G1 X136.204 Y105.854 E0.5562
G1 X113.796 Y105.854 E0.9215
G1 X113.796 Y94.146 E1.1124
G1 X114.316 Y94.666 F4800
G92 E0
G1 X135.684 Y94.666 E0.3484 F2400
G1 X135.684 Y105.334 E0.5223
G1 X114.316 Y105.334 E0.8706
G1 X114.316 Y94.666 E1.0445
G1 X114.836 Y95.186 F4800
G92 E0
G1 X135.164 Y95.186 E0.3314 F2400
G1 X135.164 Y104.814 E0.4884
G1 X114.836 Y104.814 E0.8198
G1 X114.836 Y95.186 E0.9767
G1 X115.356 Y95.706 F4800
G92 E0
G1 X134.644 Y95.706 E0.3144 F2400
G1 X134.644 Y104.294 E0.4544
G1 X115.356 Y104.294 E0.7689
G1 X115.356 Y95.706 E0.9089
G1 X115.876 Y96.226 F4800
G92 E0
G1 X134.124 Y96.226 E0.2975 F2400
G1 X134.124 Y103.774 E0.4205
G1 X115.876 Y103.774 E0.7180
G1 X115.876 Y96.226 E0.8411
G1 X116.396 Y96.746 F4800
G92 E0
G1 X133.604 Y96.746 E0.2805 F2400
G1 X133.604 Y103.254 E0.3866
G1 X116.396 Y103.254 E0.6672
G1 X116.396 Y96.746 E0.7733
G1 X116.916 Y97.266 F4800
G92 E0
G1 X133.084 Y97.266 E0.2636 F2400
G1 X133.084 Y102.734 E0.3527
G1 X116.916 Y102.734 E0.6163
G1 X116.916 Y97.266 E0.7054
G1 X117.436 Y97.786 F4800
G92 E0
G1 X132.564 Y97.786 E0.2466 F2400
G1 X132.564 Y102.214 E0.3188
G1 X117.436 Y102.214 E0.5654
G1 X117.436 Y97.786 E0.6376
G1 X117.956 Y98.306 F4800
G92 E0
G1 X132.044 Y98.306 E0.2297 F2400
G1 X132.044 Y101.694 E0.2849
G1 X117.956 Y101.694 E0.5146
G1 X117.956 Y98.306 E0.5698
G1 X118.476 Y98.826 F4800
G92 E0
G1 X131.524 Y98.826 E0.2127 F2400
G1 X131.524 Y101.174 E0.2510
G1 X118.476 Y101.174 E0.4637
G1 X118.476 Y98.826 E0.5020
G1 X118.996 Y99.346 F4800
G92 E0
G1 X131.004 Y99.346 E0.1958 F2400
G1 X131.004 Y100.654 E0.2171
G1 X118.996 Y100.654 E0.4128
G1 X118.996 Y99.346 E0.4342
G1 X119.516 Y99.866 F4800
G92 E0
G1 X130.484 Y99.866 E0.1788 F2400
G1 X130.484 Y100.134 E0.1832
G1 X119.516 Y100.134 E0.3620
G1 X119.516 Y99.866 E0.3663
G92 E0
G1 E-3.0000 F2100
G1 Z0.410 F1002
; layer 2, Z = 0.360
M106 S255
; tool H0.200 W0.400
; inner perimeter
G1 X111.000 Y91.350 F4800
G1 Z0.360 F1002
G1 E-0.0500 F2100
G92 E0
G1 X139.000 Y91.350 E0.3511 F4500
G1 X139.000 Y108.650 E0.5681
G1 X111.000 Y108.650 E0.9192
G1 X111.000 Y91.350 E1.1362
G1 X110.600 Y90.950 F4800
G92 E0
G1 X139.400 Y90.950 E0.3612 F4500
G1 X139.400 Y109.050 E0.5881
G1 X110.600 Y109.050 E0.9493
G1 X110.600 Y90.950 E1.1763
; outer perimeter
G1 X110.200 Y90.550 F4800
G92 E0
G1 X139.800 Y90.550 E0.3712 F3000
G1 X139.800 Y109.450 E0.6082
G1 X110.200 Y109.450 E0.9794
G1 X110.200 Y90.550 E1.2164
; solid layer
G1 X111.320 Y91.670 F4800
G92 E0
G1 X138.680 Y91.670 E0.3431 F4800
G1 X138.680 Y108.330 E0.5520
G1 X111.320 Y108.330 E0.8951
G1 X111.320 Y91.670 E1.1041
G1 X111.720 Y92.070 F4800
G92 E0
G1 X138.280 Y92.070 E0.3331 F4800
G1 X138.280 Y107.930 E0.5320
G1 X111.720 Y107.930 E0.8650
G1 X111.720 Y92.070 E1.0639
G1 X112.120 Y92.470 F4800
G92 E0
G1 X137.880 Y92.470 E0.3230 F4800
G1 X137.880 Y107.530 E0.5119
G1 X112.120 Y107.530 E0.8349
G1 X112.120 Y92.470 E1.0238
G1 X112.520 Y92.870 F4800
G92 E0
G1 X137.480 Y92.870 E0.3130 F4800
G1 X137.480 Y107.130 E0.4918
G1 X112.520 Y107.130 E0.8048
G1 X112.520 Y92.870 E0.9837
G1 X112.920 Y93.270 F4800
G92 E0
G1 X137.080 Y93.270 E0.3030 F4800
G1 X137.080 Y106.730 E0.4718
G1 X112.920 Y106.730 E0.7747
G1 X112.920 Y93.270 E0.9435
G1 X113.320 Y93.670 F4800
G92 E0
G1 X136.680 Y93.670 E0.2929 F4800
G1 X136.680 Y106.330 E0.4517
G1 X113.320 Y106.330 E0.7446
G1 X113.320 Y93.670 E0.9034
G1 X113.720 Y94.070 F4800
G92 E0
G1 X136.280 Y94.070 E0.2829 F4800
G1 X136.280 Y105.930 E0.4316
G1 X113.720 Y105.930 E0.7146
G1 X113.720 Y94.070 E0.8633
G1 X114.120 Y94.470 F4800
G92 E0
G1 X135.880 Y94.470 E0.2729 F4800
G1 X135.880 Y105.530 E0.4116
G1 X114.120 Y105.530 E0.6845
G1 X114.120 Y94.470 E0.8231
G1 X114.520 Y94.870 F4800
G92 E0
G1 X135.480 Y94.870 E0.2628 F4800
G1 X135.480 Y105.130 E0.3915
G1 X114.520 Y105.130 E0.6544
G1 X114.520 Y94.870 E0.7830
G1 X114.920 Y95.270 F4800
G92 E0
G1 X135.080 Y95.270 E0.2528 F4800
G1 X135.080 Y104.730 E0.3714
G1 X114.920 Y104.730 E0.6243
G1 X114.920 Y95.270 E0.7429
G1 X115.320 Y95.670 F4800
G92 E0
G1 X134.680 Y95.670 E0.2428 F4800
G1 X134.680 Y104.330 E0.3514
G1 X115.320 Y104.330 E0.5942
G1 X115.320 Y95.670 E0.7028
G1 X115.720 Y96.070 F4800
G92 E0
G1 X134.280 Y96.070 E0.2327 F4800
G1 X134.280 Y103.930 E0.3313
G1 X115.720 Y103.930 E0.5641
G1 X115.720 Y96.070 E0.6626
G1 X116.120 Y96.470 F4800
G92 E0
G1 X133.880 Y96.470 E0.2227 F4800
G1 X133.880 Y103.530 E0.3113
G1 X116.120 Y103.530 E0.5340
G1 X116.120 Y96.470 E0.6225
G1 X116.520 Y96.870 F4800
G92 E0
G1 X133.480 Y96.870 E0.2127 F4800
G1 X133.480 Y103.130 E0.2912
G1 X116.520 Y103.130 E0.5039
G1 X116.520 Y96.870 E0.5824
G1 X116.920 Y97.270 F4800
G92 E0
G1 X133.080 Y97.270 E0.2027 F4800
G1 X133.080 Y102.730 E0.2711
G1 X116.920 Y102.730 E0.4738
G1 X116.920 Y97.270 E0.5422
G1 X117.320 Y97.670 F4800
G92 E0
G1 X132.680 Y97.670 E0.1926 F4800
G1 X132.680 Y102.330 E0.2511
G1 X117.320 Y102.330 E0.4437
G1 X117.320 Y97.670 E0.5021
G1 X117.720 Y98.070 F4800
G92 E0
G1 X132.280 Y98.070 E0.1826 F4800
G1 X132.280 Y101.930 E0.2310
G1 X117.720 Y101.930 E0.4136
G1 X117.720 Y98.070 E0.4620
G1 X118.120 Y98.470 F4800
G92 E0
G1 X131.880 Y98.470 E0.1726 F4800
G1 X131.880 Y101.530 E0.2109
G1 X118.120 Y101.530 E0.3835
G1 X118.120 Y98.470 E0.4219
G1 X118.520 Y98.870 F4800
G92 E0
G1 X131.480 Y98.870 E0.1625 F4800
G1 X131.480 Y101.130 E0.1909
G1 X118.520 Y101.130 E0.3534
G1 X118.520 Y98.870 E0.3817
G1 X118.920 Y99.270 F4800
G92 E0
G1 X131.080 Y99.270 E0.1525 F4800
G1 X131.080 Y100.730 E0.1708
G1 X118.920 Y100.730 E0.3233
G1 X118.920 Y99.270 E0.3416
G1 X119.320 Y99.670 F4800
G92 E0
G1 X130.680 Y99.670 E0.1425 F4800
G1 X130.680 Y100.330 E0.1507
G1 X119.320 Y100.330 E0.2932
G1 X119.320 Y99.670 E0.3015
G92 E0
G1 E-3.0000 F2100
G1 Z0.610 F1002
; layer 3, Z = 0.560
; inner perimeter
G1 X111.000 Y91.350 F4800
G1 Z0.560 F1002
G1 E-0.0500 F2100
G92 E0
G1 X139.000 Y91.350 E0.3511 F4500
G1 X139.000 Y108.650 E0.5681
G1 X111.000 Y108.650 E0.9192
G1 X111.000 Y91.350 E1.1362
G1 X110.600 Y90.950 F4800
G92 E0
G1 X139.400 Y90.950 E0.3612 F4500
G1 X139.400 Y109.050 E0.5881
G1 X110.600 Y109.050 E0.9493
G1 X110.600 Y90.950 E1.1763
; outer perimeter
G1 X110.200 Y90.550 F4800
G92 E0
G1 X139.800 Y90.550 E0.3712 F3000
G1 X139.800 Y109.450 E0.6082
G1 X110.200 Y109.450 E0.9794
G1 X110.200 Y90.550 E1.2164
; solid layer
G1 X111.320 Y91.670 F4800
G92 E0
