; G-Code generated by Simplify3D(R) Version 4.0.0
; Jul 29, 2018 at 10:31:56 AM
; Settings Summary
;   processName,FunnelCaps
;   applyToModels,canapied01
;   profileName,Bcn3D+
;   profileVersion,2015-10-18 19:43:31
;   baseProfile,Default (modified)
;   printMaterial,PLA
;   printQuality,Fast
;   printExtruders,
;   extruderName,Primary Extruder
;   extruderToolheadNumber,0
;   extruderDiameter,0.4
;   extruderAutoWidth,0
;   extruderWidth,0.4
;   extrusionMultiplier,1
;   extruderUseRetract,1
;   extruderRetractionDistance,3
;   extruderExtraRestartDistance,-0.05
;   extruderRetractionZLift,0.05
;   extruderRetractionSpeed,2100
;   extruderUseCoasting,0
;   extruderCoastingDistance,0.2
;   extruderUseWipe,0
;   extruderWipeDistance,5
;   primaryExtruder,0
;   layerHeight,0.2
;   topSolidLayers,6
;   bottomSolidLayers,4
;   perimeterOutlines,3
;   printPerimetersInsideOut,1
;   startPointOption,2
;   startPointOriginX,0
;   startPointOriginY,0
;   sequentialIslands,0
;   spiralVaseMode,0
;   firstLayerHeightPercentage,80
;   firstLayerWidthPercentage,130
;   firstLayerUnderspeed,0.5
;   useRaft,0
;   raftExtruder,0
;   raftTopLayers,3
;   raftBaseLayers,2
;   raftOffset,3
;   raftSeparationDistance,0.14
;   raftTopInfill,100
;   aboveRaftSpeedMultiplier,0.3
;   useSkirt,1
;   skirtExtruder,0
;   skirtLayers,1
;   skirtOutlines,10
;   skirtOffset,0
;   usePrimePillar,0
;   primePillarExtruder,999
;   primePillarWidth,12
;   primePillarLocation,7
;   primePillarSpeedMultiplier,1
;   useOozeShield,0
;   oozeShieldExtruder,999
;   oozeShieldOffset,2
;   oozeShieldOutlines,1
;   oozeShieldSidewallShape,1
;   oozeShieldSidewallAngle,30
;   oozeShieldSpeedMultiplier,1
;   infillExtruder,0
;   internalInfillPattern,Fast Honeycomb
;   externalInfillPattern,Concentric
;   infillPercentage,25
;   outlineOverlapPercentage,20
;   infillExtrusionWidthPercentage,100
;   minInfillLength,5
;   infillLayerInterval,1
;   internalInfillAngles,0
;   overlapInternalInfillAngles,0
;   externalInfillAngles,45,-45
;   generateSupport,0
;   supportExtruder,0
;   supportInfillPercentage,30
;   supportExtraInflation,0
;   supportBaseLayers,0
;   denseSupportExtruder,0
;   denseSupportLayers,0
;   denseSupportInfillPercentage,70
;   supportLayerInterval,1
;   supportHorizontalPartOffset,0.3
;   supportUpperSeparationLayers,1
;   supportLowerSeparationLayers,1
;   supportType,0
;   supportGridSpacing,4
;   maxOverhangAngle,45
;   supportAngles,0
;   temperatureName,Primary Extruder,Heated Bed
;   temperatureNumber,0,1
;   temperatureSetpointCount,1,1
;   temperatureSetpointLayers,1,1
;   temperatureSetpointTemperatures,210,45
;   temperatureStabilizeAtStartup,1,1
;   temperatureHeatedBed,0,1
;   temperatureRelayBetweenLayers,0,0
;   temperatureRelayBetweenLoops,0,0
;   fanLayers,1,2
;   fanSpeeds,0,100
;   blipFanToFullPower,1
;   adjustSpeedForCooling,1
;   minSpeedLayerTime,15
;   minCoolingSpeedSlowdown,20
;   increaseFanForCooling,0
;   minFanLayerTime,45
;   maxCoolingFanSpeed,100
;   increaseFanForBridging,1
;   bridgingFanSpeed,100
;   use5D,1
;   relativeEdistances,0
;   allowEaxisZeroing,1
;   independentExtruderAxes,0
;   includeM10123,0
;   stickySupport,1
;   applyToolheadOffsets,0
;   gcodeXoffset,0
;   gcodeYoffset,0
;   gcodeZoffset,0
;   overrideMachineDefinition,1
;   machineTypeOverride,0
;   strokeXoverride,250
;   strokeYoverride,200
;   strokeZoverride,200
;   originOffsetXoverride,0
;   originOffsetYoverride,0
;   originOffsetZoverride,0
;   homeXdirOverride,-1
;   homeYdirOverride,-1
;   homeZdirOverride,-1
;   flipXoverride,1
;   flipYoverride,-1
;   flipZoverride,1
;   toolheadOffsets,0,0|0,0|0,0|0,0|0,0|0,0
;   overrideFirmwareConfiguration,1
;   firmwareTypeOverride,RepRap (Marlin/Repetier/Sprinter)
;   GPXconfigOverride,r2
;   baudRateOverride,115200
;   overridePrinterModels,0
;   printerModelsOverride
;   startingGcode,G28 ; home all axes
;   layerChangeGcode,
;   retractionGcode,
;   toolChangeGcode,
;   endingGcode,M104 S0 ; turn off Hot End,M120 S0; turn off Hot Bed,M140 S0,G1 X230 Y210 E0; ,M84     ; disable motors,M106 S0; disable fan
;   exportFileFormat,gcode
;   celebration,0
;   celebrationSong,Random Song
;   postProcessing,
;   defaultSpeed,6000
;   outlineUnderspeed,0.5
;   solidInfillUnderspeed,0.8
;   supportUnderspeed,0.8
;   rapidXYspeed,4800
;   rapidZspeed,1002
;   minBridgingArea,50
;   bridgingExtraInflation,0
;   bridgingExtrusionMultiplier,1
;   bridgingSpeedMultiplier,1
;   useFixedBridgingAngle,0
;   fixedBridgingAngle,0
;   applyBridgingToPerimeters,0
;   filamentDiameters,2.85|2.85|2.85|2.85|2.85|2.85
;   filamentPricesPerKg,45|45|45|45|45|45
;   filamentDensities,1.25|1.25|1.25|1.25|1.25|1.25
;   useMinPrintHeight,0
;   minPrintHeight,0.2
;   useMaxPrintHeight,1
;   maxPrintHeight,15
;   useDiaphragm,0
;   diaphragmLayerInterval,20
;   robustSlicing,1
;   mergeAllIntoSolid,0
;   onlyRetractWhenCrossingOutline,1
;   retractBetweenLayers,1
;   useRetractionMinTravel,0
;   retractionMinTravel,3
;   retractWhileWiping,0
;   onlyWipeOutlines,1
;   avoidCrossingOutline,0
;   maxMovementDetourFactor,3
;   toolChangeRetractionDistance,12
;   toolChangeExtraRestartDistance,-0.5
;   toolChangeRetractionSpeed,600
;   externalThinWallType,0
;   internalThinWallType,2
;   thinWallAllowedOverlapPercentage,10
;   singleExtrusionMinLength,1
;   singleExtrusionMinPrintingWidthPercentage,50
;   singleExtrusionMaxPrintingWidthPercentage,200
;   singleExtrusionEndpointExtension,0.2
;   horizontalSizeCompensation,0
G90
M82
M106 S255
G4 P500
M106 S0
M140 S45
M190 S45
M104 S210 T0
M109 S210 T0
G28 ; home all axes
G92 E0
G1 E-3.0000 F2100
G1 Z0.210 F1002
; process FunnelCaps
; layer 1, Z = 0.160
T0
; tool H0.200 W0.520
; skirt
G1 X106.200 Y89.676 F4800
G1 Z0.160 F1002
G1 E-0.0500 F630
G92 E0
G1 X108.426 Y87.450 E0.0513 F3000
G1 X141.574 Y87.450 E0.5917
G1 X143.800 Y89.676 E0.6430
G1 X143.800 Y110.324 E0.9797
G1 X141.574 Y112.550 E1.0310
G1 X108.426 Y112.550 E1.5714
G1 X106.200 Y110.324 E1.6227
G1 X106.200 Y89.676 E1.9593
G1 X106.600 Y89.842 F4800
G92 E0
G1 X108.592 Y87.850 E0.0459 F3000
G1 X141.408 Y87.850 E0.5809
G1 X143.400 Y89.842 E0.6268
G1 X143.400 Y110.158 E0.9580
G1 X141.408 Y112.150 E1.0040
G1 X108.592 Y112.150 E1.5390
G1 X106.600 Y110.158 E1.5849
G1 X106.600 Y89.842 E1.9161
G1 X107.000 Y90.007 F4800
G92 E0
G1 X108.757 Y88.250 E0.0405 F3000
G1 X141.243 Y88.250 E0.5701
G1 X143.000 Y90.007 E0.6106
G1 X143.000 Y109.993 E0.9364
G1 X141.243 Y111.750 E0.9769
G1 X108.757 Y111.750 E1.5065
G1 X107.000 Y109.993 E1.5471
G1 X107.000 Y90.007 E1.8729
G1 X107.400 Y90.173 F4800
G92 E0
G1 X108.923 Y88.650 E0.0351 F3000
G1 X141.077 Y88.650 E0.5593
G1 X142.600 Y90.173 E0.5944
G1 X142.600 Y109.827 E0.9148
G1 X141.077 Y111.350 E0.9499
G1 X108.923 Y111.350 E1.4741
G1 X107.400 Y109.827 E1.5092
G1 X107.400 Y90.173 E1.8296
G1 X107.800 Y90.339 F4800
G92 E0
G1 X109.089 Y89.050 E0.0297 F3000
G1 X140.911 Y89.050 E0.5485
G1 X142.200 Y90.339 E0.5782
G1 X142.200 Y109.661 E0.8932
G1 X140.911 Y110.950 E0.9229
G1 X109.089 Y110.950 E1.4417
G1 X107.800 Y109.661 E1.4714
G1 X107.800 Y90.339 E1.7864
G1 X108.200 Y90.504 F4800
G92 E0
G1 X109.254 Y89.450 E0.0243 F3000
G1 X140.746 Y89.450 E0.5377
G1 X141.800 Y90.504 E0.5620
G1 X141.800 Y109.496 E0.8716
G1 X140.746 Y110.550 E0.8959
G1 X109.254 Y110.550 E1.4093
G1 X108.200 Y109.496 E1.4336
G1 X108.200 Y90.504 E1.7432
G1 X108.600 Y90.670 F4800
G92 E0
G1 X109.420 Y89.850 E0.0189 F3000
G1 X140.580 Y89.850 E0.5269
G1 X141.400 Y90.670 E0.5458
G1 X141.400 Y109.330 E0.8500
G1 X140.580 Y110.150 E0.8689
G1 X109.420 Y110.150 E1.3769
G1 X108.600 Y109.330 E1.3958
G1 X108.600 Y90.670 E1.7000
G1 X109.000 Y90.836 F4800
G92 E0
G1 X109.586 Y90.250 E0.0135 F3000
G1 X140.414 Y90.250 E0.5161
G1 X141.000 Y90.836 E0.5296
G1 X141.000 Y109.164 E0.8284
G1 X140.414 Y109.750 E0.8419
G1 X109.586 Y109.750 E1.3445
G1 X109.000 Y109.164 E1.3580
G1 X109.000 Y90.836 E1.6568
G1 X109.400 Y91.001 F4800
G92 E0
G1 X109.751 Y90.650 E0.0081 F3000
G1 X140.249 Y90.650 E0.5053
G1 X140.600 Y91.001 E0.5134
G1 X140.600 Y108.999 E0.8068
G1 X140.249 Y109.350 E0.8149
G1 X109.751 Y109.350 E1.3121
G1 X109.400 Y108.999 E1.3202
G1 X109.400 Y91.001 E1.6136
G1 X109.800 Y91.167 F4800
G92 E0
G1 X109.917 Y91.050 E0.0027 F3000
G1 X140.083 Y91.050 E0.4945
G1 X140.200 Y91.167 E0.4972
G1 X140.200 Y108.833 E0.7852
G1 X140.083 Y108.950 E0.7879
G1 X109.917 Y108.950 E1.2796
G1 X109.800 Y108.833 E1.2823
G1 X109.800 Y91.167 E1.5703
G92 E0
G1 E-3.0000 F2100
G1 Z0.210 F1002
; inner perimeter
G1 X111.300 Y92.550 F4800
G1 Z0.160 F1002
G1 E-0.0500 F2100
G92 E0
G1 X138.700 Y92.550 E0.4467 F2250
G1 X138.700 Y107.450 E0.6896
G1 X111.300 Y107.450 E1.1363
G1 X111.300 Y92.550 E1.3792
G1 X110.780 Y92.030 F4800
G92 E0
G1 X139.220 Y92.030 E0.4636 F2250
G1 X139.220 Y107.970 E0.7235
G1 X110.780 Y107.970 E1.1871
G1 X110.780 Y92.030 E1.4470
; outer perimeter
G1 X110.260 Y91.510 F4800
G92 E0
G1 X139.740 Y91.510 E0.4806 F1500
G1 X139.740 Y108.490 E0.7574
G1 X110.260 Y108.490 E1.2380
G1 X110.260 Y91.510 E1.5148
; solid layer
G1 X111.716 Y92.966 F4800
G92 E0
G1 X138.284 Y92.966 E0.4331 F2400
G1 X138.284 Y107.034 E0.6625
G1 X111.716 Y107.034 E1.0956
G1 X111.716 Y92.966 E1.3249
G1 X112.236 Y93.486 F4800
G92 E0
G1 X137.764 Y93.486 E0.4162 F2400
G1 X137.764 Y106.514 E0.6286
G1 X112.236 Y106.514 E1.0447
G1 X112.236 Y93.486 E1.2571
G1 X112.756 Y94.006 F4800
G92 E0
G1 X137.244 Y94.006 E0.3992 F2400
G1 X137.244 Y105.994 E0.5946
G1 X112.756 Y105.994 E0.9939
G1 X112.756 Y94.006 E1.1893
G1 X113.276 Y94.526 F4800
G92 E0
G1 X136.724 Y94.526 E0.3823 F2400
G1 X136.724 Y105.474 E0.5607
G1 X113.276 Y105.474 E0.9430
G1 X113.276 Y94.526 E1.1215
G1 X113.796 Y95.046 F4800
G92 E0
G1 X136.204 Y95.046 E0.3653 F2400
G1 X136.204 Y104.954 E0.5268
G1 X113.796 Y104.954 E0.8921
G1 X113.796 Y95.046 E1.0537
G1 X114.316 Y95.566 F4800
G92 E0
G1 X135.684 Y95.566 E0.3484 F2400
G1 X135.684 Y104.434 E0.4929
G1 X114.316 Y104.434 E0.8413
G1 X114.316 Y95.566 E0.9858
G1 X114.836 Y96.086 F4800
G92 E0
G1 X135.164 Y96.086 E0.3314 F2400
G1 X135.164 Y103.914 E0.4590
G1 X114.836 Y103.914 E0.7904
G1 X114.836 Y96.086 E0.9180
G1 X115.356 Y96.606 F4800
G92 E0
G1 X134.644 Y96.606 E0.3144 F2400
G1 X134.644 Y103.394 E0.4251
G1 X115.356 Y103.394 E0.7395
G1 X115.356 Y96.606 E0.8502
G1 X115.876 Y97.126 F4800
G92 E0
G1 X134.124 Y97.126 E0.2975 F2400
G1 X134.124 Y102.874 E0.3912
G1 X115.876 Y102.874 E0.6887
G1 X115.876 Y97.126 E0.7824
G1 X116.396 Y97.646 F4800
G92 E0
G1 X133.604 Y97.646 E0.2805 F2400
G1 X133.604 Y102.354 E0.3573
G1 X116.396 Y102.354 E0.6378
G1 X116.396 Y97.646 E0.7146
G1 X116.916 Y98.166 F4800
G92 E0
G1 X133.084 Y98.166 E0.2636 F2400
G1 X133.084 Y101.834 E0.3234
G1 X116.916 Y101.834 E0.5870
G1 X116.916 Y98.166 E0.6468
G1 X117.436 Y98.686 F4800
G92 E0
G1 X132.564 Y98.686 E0.2466 F2400
G1 X132.564 Y101.314 E0.2895
G1 X117.436 Y101.314 E0.5361
G1 X117.436 Y98.686 E0.5789
G1 X117.956 Y99.206 F4800
G92 E0
G1 X132.044 Y99.206 E0.2297 F2400
G1 X132.044 Y100.794 E0.2556
G1 X117.956 Y100.794 E0.4852
G1 X117.956 Y99.206 E0.5111
G1 X118.476 Y99.726 F4800
G92 E0
G1 X131.524 Y99.726 E0.2127 F2400
G1 X131.524 Y100.274 E0.2216
G1 X118.476 Y100.274 E0.4344
G1 X118.476 Y99.726 E0.4433
G92 E0
G1 E-3.0000 F2100
G1 Z0.410 F1002
; layer 2, Z = 0.360
M106 S255
; tool H0.200 W0.400
; inner perimeter
G1 X111.000 Y92.250 F4800
G1 Z0.360 F1002
G1 E-0.0500 F2100
G92 E0
G1 X139.000 Y92.250 E0.3511 F4500
G1 X139.000 Y107.750 E0.5455
G1 X111.000 Y107.750 E0.8966
G1 X111.000 Y92.250 E1.0910
G1 X110.600 Y91.850 F4800
G92 E0
G1 X139.400 Y91.850 E0.3612 F4500
G1 X139.400 Y108.150 E0.5656
G1 X110.600 Y108.150 E0.9267
G1 X110.600 Y91.850 E1.1311
; outer perimeter
G1 X110.200 Y91.450 F4800
G92 E0
G1 X139.800 Y91.450 E0.3712 F3000
G1 X139.800 Y108.550 E0.5856
G1 X110.200 Y108.550 E0.9568
G1 X110.200 Y91.450 E1.1713
; solid layer
G1 X111.320 Y92.570 F4800
G92 E0
G1 X138.680 Y92.570 E0.3431 F4800
G1 X138.680 Y107.430 E0.5295
G1 X111.320 Y107.430 E0.8726
G1 X111.320 Y92.570 E1.0589
G1 X111.720 Y92.970 F4800
G92 E0
G1 X138.280 Y92.970 E0.3331 F4800
G1 X138.280 Y107.030 E0.5094
G1 X111.720 Y107.030 E0.8425
G1 X111.720 Y92.970 E1.0188
G1 X112.120 Y93.370 F4800
G92 E0
G1 X137.880 Y93.370 E0.3230 F4800
G1 X137.880 Y106.630 E0.4893
G1 X112.120 Y106.630 E0.8124
G1 X112.120 Y93.370 E0.9787
G1 X112.520 Y93.770 F4800
G92 E0
G1 X137.480 Y93.770 E0.3130 F4800
G1 X137.480 Y106.230 E0.4693
G1 X112.520 Y106.230 E0.7823
G1 X112.520 Y93.770 E0.9385
G1 X112.920 Y94.170 F4800
G92 E0
G1 X137.080 Y94.170 E0.3030 F4800
G1 X137.080 Y105.830 E0.4492
G1 X112.920 Y105.830 E0.7522
G1 X112.920 Y94.170 E0.8984
G1 X113.320 Y94.570 F4800
G92 E0
G1 X136.680 Y94.570 E0.2929 F4800
G1 X136.680 Y105.430 E0.4291
G1 X113.320 Y105.430 E0.7221
G1 X113.320 Y94.570 E0.8583
G1 X113.720 Y94.970 F4800
G92 E0
G1 X136.280 Y94.970 E0.2829 F4800
G1 X136.280 Y105.030 E0.4091
G1 X113.720 Y105.030 E0.6920
G1 X113.720 Y94.970 E0.8181
G1 X114.120 Y95.370 F4800
G92 E0
G1 X135.880 Y95.370 E0.2729 F4800
G1 X135.880 Y104.630 E0.3890
G1 X114.120 Y104.630 E0.6619
G1 X114.120 Y95.370 E0.7780
G1 X114.520 Y95.770 F4800
G92 E0
G1 X135.480 Y95.770 E0.2628 F4800
G1 X135.480 Y104.230 E0.3689
G1 X114.520 Y104.230 E0.6318
G1 X114.520 Y95.770 E0.7379
G1 X114.920 Y96.170 F4800
G92 E0
G1 X135.080 Y96.170 E0.2528 F4800
G1 X135.080 Y103.830 E0.3489
G1 X114.920 Y103.830 E0.6017
G1 X114.920 Y96.170 E0.6977
G1 X115.320 Y96.570 F4800
G92 E0
G1 X134.680 Y96.570 E0.2428 F4800
G1 X134.680 Y103.430 E0.3288
G1 X115.320 Y103.430 E0.5716
G1 X115.320 Y96.570 E0.6576
G1 X115.720 Y96.970 F4800
G92 E0
G1 X134.280 Y96.970 E0.2327 F4800
G1 X134.280 Y103.030 E0.3087
G1 X115.720 Y103.030 E0.5415
G1 X115.720 Y96.970 E0.6175
G1 X116.120 Y97.370 F4800
G92 E0
G1 X133.880 Y97.370 E0.2227 F4800
G1 X133.880 Y102.630 E0.2887
G1 X116.120 Y102.630 E0.5114
G1 X116.120 Y97.370 E0.5774
G1 X116.520 Y97.770 F4800
G92 E0
G1 X133.480 Y97.770 E0.2127 F4800
G1 X133.480 Y102.230 E0.2686
G1 X116.520 Y102.230 E0.4813
G1 X116.520 Y97.770 E0.5372
G1 X116.920 Y98.170 F4800
G92 E0
G1 X133.080 Y98.170 E0.2027 F4800
G1 X133.080 Y101.830 E0.2485
G1 X116.920 Y101.830 E0.4512
G1 X116.920 Y98.170 E0.4971
G1 X117.320 Y98.570 F4800
G92 E0
G1 X132.680 Y98.570 E0.1926 F4800
G1 X132.680 Y101.430 E0.2285
G1 X117.320 Y101.430 E0.4211
G1 X117.320 Y98.570 E0.4570
G1 X117.720 Y98.970 F4800
G92 E0
G1 X132.280 Y98.970 E0.1826 F4800
G1 X132.280 Y101.030 E0.2084
G1 X117.720 Y101.030 E0.3910
G1 X117.720 Y98.970 E0.4168
G1 X118.120 Y99.370 F4800
G92 E0
G1 X131.880 Y99.370 E0.1726 F4800
G1 X131.880 Y100.630 E0.1884
G1 X118.120 Y100.630 E0.3609
G1 X118.120 Y99.370 E0.3767
G1 X118.520 Y99.770 F4800
G92 E0
G1 X131.480 Y99.770 E0.1625 F4800
G1 X131.480 Y100.230 E0.1683
G1 X118.520 Y100.230 E0.3308
G1 X118.520 Y99.770 E0.3366
G92 E0
G1 E-3.0000 F2100
G1 Z0.610 F1002
; layer 3, Z = 0.560
; inner perimeter
G1 X111.000 Y92.250 F4800
G1 Z0.560 F1002
G1 E-0.0500 F2100
G92 E0
G1 X139.000 Y92.250 E0.3511 F4500
G1 X139.000 Y107.750 E0.5455
G1 X111.000 Y107.750 E0.8966
G1 X111.000 Y92.250 E1.0910
G1 X110.600 Y91.850 F4800
G92 E0
G1 X139.400 Y91.850 E0.3612 F4500
G1 X139.400 Y108.150 E0.5656
G1 X110.600 Y108.150 E0.9267
G1 X110.600 Y91.850 E1.1311
; outer perimeter
G1 X110.200 Y91.450 F4800
G92 E0
G1 X139.800 Y91.450 E0.3712 F3000
G1 X139.800 Y108.550 E0.5856
G1 X110.200 Y108.550 E0.9568
G1 X110.200 Y91.450 E1.1713
; solid layer
G1 X111.320 Y92.570 F4800
G92 E0
G1 X138.680 Y92.570 E0.3431 F4800
G1 X138.680 Y107.430 E0.5295
G1 X111.320 Y107.430 E0.8726
G1 X111.320 Y92.570 E1.0589
G1 X111.720 Y92.970 F4800
G92 E0
G1 X138.280 Y92.970 E0.3331 F4800
G1 X138.280 Y107.030 E0.5094
G1 X111.720 Y107.030 E0.8425
G1 X111.720 Y92.970 E1.0188
G1 X112.120 Y93.370 F4800
G92 E0
G1 X137.880 Y93.370 E0.3230 F4800
G1 X137.880 Y106.630 E0.4893
G1 X112.120 Y106.630 E0.8124
G1 X112.120 Y93.370 E0.9787
G1 X112.520 Y93.770 F4800
G92 E0
G1 X137.480 Y93.770 E0.3130 F4800
G1 X137.480 Y106.230 E0.4693
G1 X112.520 Y106.230 E0.7823
G1 X112.520 Y93.770 E0.9385
G1 X112.920 Y94.170 F4800
G92 E0
G1 X137.080 Y94.170 E0.3030 F4800
