; G-Code generated by Simplify3D(R) Version 4.0.0
; Jul 29, 2018 at 11:28:57 AM
; Settings Summary
;   processName,FunnelCaps
;   applyToModels,canapied03
;   profileName,Bcn3D+ (modified)
;   profileVersion,2015-10-18 19:43:31
;   baseProfile,Default (modified)
;   printMaterial,PLA
;   printQuality,Medium
;   printExtruders,
;   extruderName,Primary Extruder
;   extruderToolheadNumber,0
;   extruderDiameter,0.4
;   extruderAutoWidth,0
;   extruderWidth,0.4
;   extrusionMultiplier,1
;   extruderUseRetract,1
;   extruderRetractionDistance,3
;   extruderExtraRestartDistance,-0.05
;   extruderRetractionZLift,0.05
;   extruderRetractionSpeed,2100
;   extruderUseCoasting,0
;   extruderCoastingDistance,0.2
;   extruderUseWipe,0
;   extruderWipeDistance,5
;   primaryExtruder,0
;   layerHeight,0.2
;   topSolidLayers,3
;   bottomSolidLayers,3
;   perimeterOutlines,3
;   printPerimetersInsideOut,1
;   startPointOption,2
;   startPointOriginX,0
;   startPointOriginY,0
;   sequentialIslands,0
;   spiralVaseMode,0
;   firstLayerHeightPercentage,80
;   firstLayerWidthPercentage,130
;   firstLayerUnderspeed,0.5
;   useRaft,0
;   raftExtruder,0
;   raftTopLayers,3
;   raftBaseLayers,2
;   raftOffset,3
;   raftSeparationDistance,0.14
;   raftTopInfill,100
;   aboveRaftSpeedMultiplier,0.3
;   useSkirt,1
;   skirtExtruder,0
;   skirtLayers,1
;   skirtOutlines,10
;   skirtOffset,0
;   usePrimePillar,0
;   primePillarExtruder,999
;   primePillarWidth,12
;   primePillarLocation,7
;   primePillarSpeedMultiplier,1
;   useOozeShield,0
;   oozeShieldExtruder,999
;   oozeShieldOffset,2
;   oozeShieldOutlines,1
;   oozeShieldSidewallShape,1
;   oozeShieldSidewallAngle,30
;   oozeShieldSpeedMultiplier,1
;   infillExtruder,0
;   internalInfillPattern,Fast Honeycomb
;   externalInfillPattern,Concentric
;   infillPercentage,30
;   outlineOverlapPercentage,20
;   infillExtrusionWidthPercentage,100
;   minInfillLength,5
;   infillLayerInterval,1
;   internalInfillAngles,0
;   overlapInternalInfillAngles,0
;   externalInfillAngles,45,-45
;   generateSupport,0
;   supportExtruder,0
;   supportInfillPercentage,30
;   supportExtraInflation,0
;   supportBaseLayers,0
;   denseSupportExtruder,0
;   denseSupportLayers,0
;   denseSupportInfillPercentage,70
;   supportLayerInterval,1
;   supportHorizontalPartOffset,0.3
;   supportUpperSeparationLayers,1
;   supportLowerSeparationLayers,1
;   supportType,0
;   supportGridSpacing,4
;   maxOverhangAngle,45
;   supportAngles,0
;   temperatureName,Primary Extruder,Heated Bed
;   temperatureNumber,0,1
;   temperatureSetpointCount,1,1
;   temperatureSetpointLayers,1,1
;   temperatureSetpointTemperatures,210,45
;   temperatureStabilizeAtStartup,1,1
;   temperatureHeatedBed,0,1
;   temperatureRelayBetweenLayers,0,0
;   temperatureRelayBetweenLoops,0,0
;   fanLayers,1,2
;   fanSpeeds,0,100
;   blipFanToFullPower,1
;   adjustSpeedForCooling,1
;   minSpeedLayerTime,15
;   minCoolingSpeedSlowdown,20
;   increaseFanForCooling,0
;   minFanLayerTime,45
;   maxCoolingFanSpeed,100
;   increaseFanForBridging,1
;   bridgingFanSpeed,100
;   use5D,1
;   relativeEdistances,0
;   allowEaxisZeroing,1
;   independentExtruderAxes,0
;   includeM10123,0
;   stickySupport,1
;   applyToolheadOffsets,0
;   gcodeXoffset,0
;   gcodeYoffset,0
;   gcodeZoffset,0
;   overrideMachineDefinition,1
;   machineTypeOverride,0
;   strokeXoverride,250
;   strokeYoverride,200
;   strokeZoverride,200
;   originOffsetXoverride,0
;   originOffsetYoverride,0
;   originOffsetZoverride,0
;   homeXdirOverride,-1
;   homeYdirOverride,-1
;   homeZdirOverride,-1
;   flipXoverride,1
;   flipYoverride,-1
;   flipZoverride,1
;   toolheadOffsets,0,0|0,0|0,0|0,0|0,0|0,0
;   overrideFirmwareConfiguration,1
;   firmwareTypeOverride,RepRap (Marlin/Repetier/Sprinter)
;   GPXconfigOverride,r2
;   baudRateOverride,115200
;   overridePrinterModels,0
;   printerModelsOverride
;   startingGcode,G28 ; home all axes
;   layerChangeGcode,
;   retractionGcode,
;   toolChangeGcode,
;   endingGcode,M104 S0 ; turn off Hot End,M120 S0; turn off Hot Bed,M140 S0,G1 X230 Y210 E0; ,M84     ; disable motors,M106 S0; disable fan
;   exportFileFormat,gcode
;   celebration,0
;   celebrationSong,Random Song
;   postProcessing,
;   defaultSpeed,6000
;   outlineUnderspeed,0.5
;   solidInfillUnderspeed,0.8
;   supportUnderspeed,0.8
;   rapidXYspeed,4800
;   rapidZspeed,1002
;   minBridgingArea,50
;   bridgingExtraInflation,0
;   bridgingExtrusionMultiplier,1
;   bridgingSpeedMultiplier,1
;   useFixedBridgingAngle,0
;   fixedBridgingAngle,0
;   applyBridgingToPerimeters,0
;   filamentDiameters,2.85|2.85|2.85|2.85|2.85|2.85
;   filamentPricesPerKg,45|45|45|45|45|45
;   filamentDensities,1.25|1.25|1.25|1.25|1.25|1.25
;   useMinPrintHeight,0
;   minPrintHeight,0.2
;   useMaxPrintHeight,0
;   maxPrintHeight,15
;   useDiaphragm,0
;   diaphragmLayerInterval,20
;   robustSlicing,1
;   mergeAllIntoSolid,0
;   onlyRetractWhenCrossingOutline,1
;   retractBetweenLayers,1
;   useRetractionMinTravel,0
;   retractionMinTravel,3
;   retractWhileWiping,0
;   onlyWipeOutlines,1
;   avoidCrossingOutline,0
;   maxMovementDetourFactor,3
;   toolChangeRetractionDistance,12
;   toolChangeExtraRestartDistance,-0.5
;   toolChangeRetractionSpeed,600
;   externalThinWallType,0
;   internalThinWallType,2
;   thinWallAllowedOverlapPercentage,10
;   singleExtrusionMinLength,1
;   singleExtrusionMinPrintingWidthPercentage,50
;   singleExtrusionMaxPrintingWidthPercentage,200
;   singleExtrusionEndpointExtension,0.2
;   horizontalSizeCompensation,0
G90
M82
M106 S255
G4 P500
M106 S0
M140 S45
M190 S45
M104 S210 T0
M109 S210 T0
G28 ; home all axes
G92 E0
G1 E-3.0000 F2100
G1 Z0.210 F1002
; process FunnelCaps
; layer 1, Z = 0.160
T0
; tool H0.200 W0.520
; skirt
G1 X106.200 Y88.826 F4800
G1 Z0.160 F1002
G1 E-0.0500 F630
G92 E0
G1 X108.426 Y86.600 E0.0513 F3000
G1 X141.574 Y86.600 E0.5917
G1 X143.800 Y88.826 E0.6430
G1 X143.800 Y111.174 E1.0074
G1 X141.574 Y113.400 E1.0587
G1 X108.426 Y113.400 E1.5991
G1 X106.200 Y111.174 E1.6504
G1 X106.200 Y88.826 E2.0147
G1 X106.600 Y88.992 F4800
G92 E0
G1 X108.592 Y87.000 E0.0459 F3000
G1 X141.408 Y87.000 E0.5809
G1 X143.400 Y88.992 E0.6268
G1 X143.400 Y111.008 E0.9858
G1 X141.408 Y113.000 E1.0317
G1 X108.592 Y113.000 E1.5667
G1 X106.600 Y111.008 E1.6126
G1 X106.600 Y88.992 E1.9715
G1 X107.000 Y89.157 F4800
G92 E0
G1 X108.757 Y87.400 E0.0405 F3000
G1 X141.243 Y87.400 E0.5701
G1 X143.000 Y89.157 E0.6106
G1 X143.000 Y110.843 E0.9641
G1 X141.243 Y112.600 E1.0047
G1 X108.757 Y112.600 E1.5343
G1 X107.000 Y110.843 E1.5748
G1 X107.000 Y89.157 E1.9283
G1 X107.400 Y89.323 F4800
G92 E0
G1 X108.923 Y87.800 E0.0351 F3000
G1 X141.077 Y87.800 E0.5593
G1 X142.600 Y89.323 E0.5944
G1 X142.600 Y110.677 E0.9425
G1 X141.077 Y112.200 E0.9777
G1 X108.923 Y112.200 E1.5018
G1 X107.400 Y110.677 E1.5370
G1 X107.400 Y89.323 E1.8851
G1 X107.800 Y89.489 F4800
G92 E0
G1 X109.089 Y88.200 E0.0297 F3000
G1 X140.911 Y88.200 E0.5485
G1 X142.200 Y89.489 E0.5782
G1 X142.200 Y110.511 E0.9209
G1 X140.911 Y111.800 E0.9506
G1 X109.089 Y111.800 E1.4694
G1 X107.800 Y110.511 E1.4991
G1 X107.800 Y89.489 E1.8419
G1 X108.200 Y89.654 F4800
G92 E0
G1 X109.254 Y88.600 E0.0243 F3000
G1 X140.746 Y88.600 E0.5377
G1 X141.800 Y89.654 E0.5620
G1 X141.800 Y110.346 E0.8993
G1 X140.746 Y111.400 E0.9236
G1 X109.254 Y111.400 E1.4370
G1 X108.200 Y110.346 E1.4613
G1 X108.200 Y89.654 E1.7986
G1 X108.600 Y89.820 F4800
G92 E0
G1 X109.420 Y89.000 E0.0189 F3000
G1 X140.580 Y89.000 E0.5269
G1 X141.400 Y89.820 E0.5458
G1 X141.400 Y110.180 E0.8777
G1 X140.580 Y111.000 E0.8966
G1 X109.420 Y111.000 E1.4046
G1 X108.600 Y110.180 E1.4235
G1 X108.600 Y89.820 E1.7554
G1 X109.000 Y89.986 F4800
G92 E0
G1 X109.586 Y89.400 E0.0135 F3000
G1 X140.414 Y89.400 E0.5161
G1 X141.000 Y89.986 E0.5296
G1 X141.000 Y110.014 E0.8561
G1 X140.414 Y110.600 E0.8696
G1 X109.586 Y110.600 E1.3722
G1 X109.000 Y110.014 E1.3857
G1 X109.000 Y89.986 E1.7122
G1 X109.400 Y90.151 F4800
G92 E0
G1 X109.751 Y89.800 E0.0081 F3000
G1 X140.249 Y89.800 E0.5053
G1 X140.600 Y90.151 E0.5134
G1 X140.600 Y109.849 E0.8345
G1 X140.249 Y110.200 E0.8426
G1 X109.751 Y110.200 E1.3398
G1 X109.400 Y109.849 E1.3479
G1 X109.400 Y90.151 E1.6690
G1 X109.800 Y90.317 F4800
G92 E0
G1 X109.917 Y90.200 E0.0027 F3000
G1 X140.083 Y90.200 E0.4945
G1 X140.200 Y90.317 E0.4972
G1 X140.200 Y109.683 E0.8129
G1 X140.083 Y109.800 E0.8156
G1 X109.917 Y109.800 E1.3074
G1 X109.800 Y109.683 E1.3101
G1 X109.800 Y90.317 E1.6258
G92 E0
G1 E-3.0000 F2100
G1 Z0.210 F1002
; inner perimeter
G1 X111.300 Y91.700 F4800
G1 Z0.160 F1002
G1 E-0.0500 F2100
G92 E0
G1 X138.700 Y91.700 E0.4467 F2250
G1 X138.700 Y108.300 E0.7173
G1 X111.300 Y108.300 E1.1640
G1 X111.300 Y91.700 E1.4346
G1 X110.780 Y91.180 F4800
G92 E0
G1 X139.220 Y91.180 E0.4636 F2250
G1 X139.220 Y108.820 E0.7512
G1 X110.780 Y108.820 E1.2149
G1 X110.780 Y91.180 E1.5024
; outer perimeter
G1 X110.260 Y90.660 F4800
G92 E0
G1 X139.740 Y90.660 E0.4806 F1500
G1 X139.740 Y109.340 E0.7851
G1 X110.260 Y109.340 E1.2657
G1 X110.260 Y90.660 E1.5703
; solid layer
G1 X111.716 Y92.116 F4800
G92 E0
G1 X138.284 Y92.116 E0.4331 F2400
G1 X138.284 Y107.884 E0.6902
G1 X111.716 Y107.884 E1.1233
G1 X111.716 Y92.116 E1.3804
G1 X112.236 Y92.636 F4800
G92 E0
G1 X137.764 Y92.636 E0.4162 F2400
G1 X137.764 Y107.364 E0.6563
G1 X112.236 Y107.364 E1.0724
G1 X112.236 Y92.636 E1.3125
G1 X112.756 Y93.156 F4800
G92 E0
G1 X137.244 Y93.156 E0.3992 F2400
G1 X137.244 Y106.844 E0.6224
G1 X112.756 Y106.844 E1.0216
G1 X112.756 Y93.156 E1.2447
G1 X113.276 Y93.676 F4800
G92 E0
G1 X136.724 Y93.676 E0.3823 F2400
G1 X136.724 Y106.324 E0.5885
G1 X113.276 Y106.324 E0.9707
G1 X113.276 Y93.676 E1.1769
G1 X113.796 Y94.196 F4800
G92 E0
G1 X136.204 Y94.196 E0.3653 F2400
G1 X136.204 Y105.804 E0.5545
G1 X113.796 Y105.804 E0.9199
G1 X113.796 Y94.196 E1.1091
G1 X114.316 Y94.716 F4800
G92 E0
G1 X135.684 Y94.716 E0.3484 F2400
G1 X135.684 Y105.284 E0.5206
G1 X114.316 Y105.284 E0.8690
G1 X114.316 Y94.716 E1.0413
G1 X114.836 Y95.236 F4800
G92 E0
G1 X135.164 Y95.236 E0.3314 F2400
G1 X135.164 Y104.764 E0.4867
G1 X114.836 Y104.764 E0.8181
G1 X114.836 Y95.236 E0.9735
G1 X115.356 Y95.756 F4800
G92 E0
G1 X134.644 Y95.756 E0.3144 F2400
G1 X134.644 Y104.244 E0.4528
G1 X115.356 Y104.244 E0.7673
G1 X115.356 Y95.756 E0.9056
G1 X115.876 Y96.276 F4800
G92 E0
G1 X134.124 Y96.276 E0.2975 F2400
G1 X134.124 Y103.724 E0.4189
G1 X115.876 Y103.724 E0.7164
G1 X115.876 Y96.276 E0.8378
G1 X116.396 Y96.796 F4800
G92 E0
G1 X133.604 Y96.796 E0.2805 F2400
G1 X133.604 Y103.204 E0.3850
G1 X116.396 Y103.204 E0.6655
G1 X116.396 Y96.796 E0.7700
G1 X116.916 Y97.316 F4800
G92 E0
G1 X133.084 Y97.316 E0.2636 F2400
G1 X133.084 Y102.684 E0.3511
G1 X116.916 Y102.684 E0.6147
G1 X116.916 Y97.316 E0.7022
G1 X117.436 Y97.836 F4800
G92 E0
G1 X132.564 Y97.836 E0.2466 F2400
G1 X132.564 Y102.164 E0.3172
G1 X117.436 Y102.164 E0.5638
G1 X117.436 Y97.836 E0.6344
G1 X117.956 Y98.356 F4800
G92 E0
G1 X132.044 Y98.356 E0.2297 F2400
G1 X132.044 Y101.644 E0.2833
G1 X117.956 Y101.644 E0.5129
G1 X117.956 Y98.356 E0.5665
G1 X118.476 Y98.876 F4800
G92 E0
G1 X131.524 Y98.876 E0.2127 F2400
G1 X131.524 Y101.124 E0.2494
G1 X118.476 Y101.124 E0.4621
G1 X118.476 Y98.876 E0.4987
G1 X118.996 Y99.396 F4800
G92 E0
G1 X131.004 Y99.396 E0.1958 F2400
G1 X131.004 Y100.604 E0.2155
G1 X118.996 Y100.604 E0.4112
G1 X118.996 Y99.396 E0.4309
G1 X119.516 Y99.916 F4800
G92 E0
G1 X130.484 Y99.916 E0.1788 F2400
G1 X130.484 Y100.084 E0.1815
G1 X119.516 Y100.084 E0.3603
G1 X119.516 Y99.916 E0.3631
G92 E0
G1 E-3.0000 F2100
G1 Z0.410 F1002
; layer 2, Z = 0.360
M106 S255
; tool H0.200 W0.400
; inner perimeter
G1 X111.000 Y91.400 F4800
G1 Z0.360 F1002
G1 E-0.0500 F2100
G92 E0
G1 X139.000 Y91.400 E0.3511 F4500
G1 X139.000 Y108.600 E0.5668
G1 X111.000 Y108.600 E0.9180
G1 X111.000 Y91.400 E1.1336
G1 X110.600 Y91.000 F4800
G92 E0
G1 X139.400 Y91.000 E0.3612 F4500
G1 X139.400 Y109.000 E0.5869
G1 X110.600 Y109.000 E0.9481
G1 X110.600 Y91.000 E1.1738
; outer perimeter
G1 X110.200 Y90.600 F4800
G92 E0
G1 X139.800 Y90.600 E0.3712 F3000
G1 X139.800 Y109.400 E0.6070
G1 X110.200 Y109.400 E0.9781
G1 X110.200 Y90.600 E1.2139
; solid layer
G1 X111.320 Y91.720 F4800
G92 E0
G1 X138.680 Y91.720 E0.3431 F4800
G1 X138.680 Y108.280 E0.5508
G1 X111.320 Y108.280 E0.8939
G1 X111.320 Y91.720 E1.1015
G1 X111.720 Y92.120 F4800
G92 E0
G1 X138.280 Y92.120 E0.3331 F4800
G1 X138.280 Y107.880 E0.5307
G1 X111.720 Y107.880 E0.8638
G1 X111.720 Y92.120 E1.0614
G1 X112.120 Y92.520 F4800
G92 E0
G1 X137.880 Y92.520 E0.3230 F4800
G1 X137.880 Y107.480 E0.5106
G1 X112.120 Y107.480 E0.8337
G1 X112.120 Y92.520 E1.0213
G1 X112.520 Y92.920 F4800
G92 E0
G1 X137.480 Y92.920 E0.3130 F4800
G1 X137.480 Y107.080 E0.4906
G1 X112.520 Y107.080 E0.8036
G1 X112.520 Y92.920 E0.9812
G1 X112.920 Y93.320 F4800
G92 E0
G1 X137.080 Y93.320 E0.3030 F4800
G1 X137.080 Y106.680 E0.4705
G1 X112.920 Y106.680 E0.7735
G1 X112.920 Y93.320 E0.9410
G1 X113.320 Y93.720 F4800
G92 E0
G1 X136.680 Y93.720 E0.2929 F4800
G1 X136.680 Y106.280 E0.4504
G1 X113.320 Y106.280 E0.7434
G1 X113.320 Y93.720 E0.9009
G1 X113.720 Y94.120 F4800
G92 E0
G1 X136.280 Y94.120 E0.2829 F4800
G1 X136.280 Y105.880 E0.4304
G1 X113.720 Y105.880 E0.7133
G1 X113.720 Y94.120 E0.8608
G1 X114.120 Y94.520 F4800
G92 E0
G1 X135.880 Y94.520 E0.2729 F4800
G1 X135.880 Y105.480 E0.4103
G1 X114.120 Y105.480 E0.6832
G1 X114.120 Y94.520 E0.8206
G1 X114.520 Y94.920 F4800
G92 E0
G1 X135.480 Y94.920 E0.2628 F4800
G1 X135.480 Y105.080 E0.3903
G1 X114.520 Y105.080 E0.6531
G1 X114.520 Y94.920 E0.7805
G1 X114.920 Y95.320 F4800
G92 E0
G1 X135.080 Y95.320 E0.2528 F4800
G1 X135.080 Y104.680 E0.3702
G1 X114.920 Y104.680 E0.6230
G1 X114.920 Y95.320 E0.7404
G1 X115.320 Y95.720 F4800
G92 E0
G1 X134.680 Y95.720 E0.2428 F4800
G1 X134.680 Y104.280 E0.3501
G1 X115.320 Y104.280 E0.5929
G1 X115.320 Y95.720 E0.7003
G1 X115.720 Y96.120 F4800
G92 E0
G1 X134.280 Y96.120 E0.2327 F4800
G1 X134.280 Y103.880 E0.3301
G1 X115.720 Y103.880 E0.5628
G1 X115.720 Y96.120 E0.6601
G1 X116.120 Y96.520 F4800
G92 E0
G1 X133.880 Y96.520 E0.2227 F4800
G1 X133.880 Y103.480 E0.3100
G1 X116.120 Y103.480 E0.5327
G1 X116.120 Y96.520 E0.6200
G1 X116.520 Y96.920 F4800
G92 E0
G1 X133.480 Y96.920 E0.2127 F4800
G1 X133.480 Y103.080 E0.2899
G1 X116.520 Y103.080 E0.5026
G1 X116.520 Y96.920 E0.5799
G1 X116.920 Y97.320 F4800
G92 E0
G1 X133.080 Y97.320 E0.2027 F4800
G1 X133.080 Y102.680 E0.2699
G1 X116.920 Y102.680 E0.4725
G1 X116.920 Y97.320 E0.5397
G1 X117.320 Y97.720 F4800
G92 E0
G1 X132.680 Y97.720 E0.1926 F4800
G1 X132.680 Y102.280 E0.2498
G1 X117.320 Y102.280 E0.4424
G1 X117.320 Y97.720 E0.4996
G1 X117.720 Y98.120 F4800
G92 E0
G1 X132.280 Y98.120 E0.1826 F4800
G1 X132.280 Y101.880 E0.2297
G1 X117.720 Y101.880 E0.4123
G1 X117.720 Y98.120 E0.4595
G1 X118.120 Y98.520 F4800
G92 E0
G1 X131.880 Y98.520 E0.1726 F4800
G1 X131.880 Y101.480 E0.2097
G1 X118.120 Y101.480 E0.3822
G1 X118.120 Y98.520 E0.4193
G1 X118.520 Y98.920 F4800
G92 E0
G1 X131.480 Y98.920 E0.1625 F4800
G1 X131.480 Y101.080 E0.1896
G1 X118.520 Y101.080 E0.3521
G1 X118.520 Y98.920 E0.3792
G1 X118.920 Y99.320 F4800
G92 E0
G1 X131.080 Y99.320 E0.1525 F4800
G1 X131.080 Y100.680 E0.1695
G1 X118.920 Y100.680 E0.3220
G1 X118.920 Y99.320 E0.3391
G1 X119.320 Y99.720 F4800
G92 E0
G1 X130.680 Y99.720 E0.1425 F4800
G1 X130.680 Y100.280 E0.1495
G1 X119.320 Y100.280 E0.2919
G1 X119.320 Y99.720 E0.2990
G92 E0
G1 E-3.0000 F2100
G1 Z0.610 F1002
; layer 3, Z = 0.560
; inner perimeter
G1 X111.000 Y91.400 F4800
G1 Z0.560 F1002
G1 E-0.0500 F2100
G92 E0
G1 X139.000 Y91.400 E0.3511 F4500
G1 X139.000 Y108.600 E0.5668
G1 X111.000 Y108.600 E0.9180
G1 X111.000 Y91.400 E1.1336
G1 X110.600 Y91.000 F4800
G92 E0
G1 X139.400 Y91.000 E0.3612 F4500
G1 X139.400 Y109.000 E0.5869
G1 X110.600 Y109.000 E0.9481
G1 X110.600 Y91.000 E1.1738
; outer perimeter
G1 X110.200 Y90.600 F4800
G92 E0
G1 X139.800 Y90.600 E0.3712 F3000
G1 X139.800 Y109.400 E0.6070
G1 X110.200 Y109.400 E0.9781
G1 X110.200 Y90.600 E1.2139
; solid layer
G1 X111.320 Y91.720 F4800
G92 E0
